X:1
T: Opera Dance
C:
R:Jig
Q:180
K:D
M:6/8
L:1/16
(3A,B,C|D4D2 F4A2|d4D2 D2E2F2|E2F2D2 C2B,2A,2|E2F2D2 C2B,2A,2|D4D2 F4A2|d4D2 D2E2F2|B,2G2F2 E2D2C2|D6 D4FG|
A2F2A2 B2A2B2|G2F2G2 A2G2A2|E2B,2E2 G4F2|E2F2D2 C2B,2A,2|A2F2A2 B2A2B2|G2F2G2 A2F2D2|B,2G2F2 E2D2C2|D6D4(3ABc|
D4D2 F4A2|d4D2 D2E2F2|E2F2D2 C2B,2A,2|E2F2D2 C2B,2A,2|D4D2 F4A2|d4D2 D2E2F2|B,2G2F2 E2D2C2|D6D4fg|
a2^g2a2 b2a2b2|g2f2g2 a2^g2a2|e2B2e2 g2f2g2|e2f2d2 c2B2A2|a2^g2a2 b2a2b2|g2f2g2 a2f2d2|B2g2f2 e2d2c2|d6d4||
